imagenes/landing/lg_desordenar.svg

<svg xmlns="http://www.w3.org/2000/svg" xml:space="preserve" fill-rule="evenodd" stroke-linecap="round" stroke-linejoin="round" stroke-miterlimit="1.5" clip-rule="evenodd" viewBox="0 0 1980 692"><g fill="none" stroke="#000" transform="translate(90)"><path stroke-width="38.3" d="M13.233 109.995c3.179 150.563-4.961 150.25 2.311 300.93.385 7.975 4.344 58.103 11.127 150.465m2.736-19.15v90.279M17.854 118.202c25.542-7.56 72.54-37.488 127.076 10.943 5.285 4.694 87.851 41.345 92.419 68.393 34.324 203.221-36.311 261.879-39.278 289.987-5.255 49.779-91.867 123.032-101.661 131.315-12.099 10.232-30.481 11.207-57.762 27.357" transform="matrix(.92437 0 0 1.0315 -81.615 -29.958)"/><path stroke-width="38.3" d="M329.769 159.238c7.662 27.215-73.535 39.285-117.906 49.827l2.382 59.603c.68 34.643-2.381 69.42 0 103.958.292 4.235 4.052 2.818 9.242 51.979 6.968 66.005 15.24 316.004 41.589 238.008 5.484-16.232 40.091-118.672 103.972-180.558" transform="matrix(.92437 0 0 1.0315 -81.615 -29.958)"/><path stroke-width="38.3" d="M230.418 421.868c7.994-28.399 45.066-46.867 57.762-65.658m173.286-238.008c-81.682-48.358-122.806 162.669-85.488 144.994 27.867-13.199 51.815-41.845 69.314 41.036 22.632 107.19-.079 106.23-50.831 199.708l-18.484 8.207m136.319-410.36C561.235-4.751 710.858 278.001 672.995 442.385c-26.867 116.645-135.222 52.814-155.709 0-78.581-202.569-28.169-285.708-4.989-340.598z" transform="matrix(.92437 0 0 1.0315 -81.615 -29.958)"/><path stroke-width="38.3" d="M679.068 78.406s-2.901 448.636 0 482.984c.026.308 0 21.199 0 0" transform="matrix(.92437 0 0 1.0315 -81.615 -29.958)"/><path stroke-width="38.3" d="M679.068 78.406c33.905-6.245 99.501 29.627 119.728 69.889 19.042 37.903 54.281 115.593-23.105 161.408-24.715 14.632-142.433 22.345-66.635 73.63 26.773 18.115 120.698 114.583 129.018 134.285m0-439.212c-8.769 83.066 23.104 534.965 18.484 559.585" transform="matrix(.92437 0 0 1.0315 -81.615 -29.958)"/><path stroke-width="38.3" d="M827.165 78.406c195.322-85.404 267.493 73.315 193.436 318.84C967.862 572.095 875.25 626.923 856.557 637.99" transform="matrix(.92437 0 0 1.0315 -81.615 -29.958)"/><path stroke-width="38.3" d="M1156.92 101.787c-32.277 6.37-70.712 37.915-76.246 38.3-12.301.857-24.796-2.276-36.968 0-8.615 1.611-2.389 315.301 9.207 436.971 57.189-56.661 55.205-80.164 164.079-105.947" transform="matrix(.92437 0 0 1.0315 -81.615 -29.958)"/><path stroke-width="38.3" d="M1133.815 254.988c-13.07-3.869-38.388 43.981-55.451 57.45-14.618 11.539-17.197 6.303-27.726 21.886m140.939-285.662c-6.071 168.921 1.454 207.208 4.621 375.942.19 10.103 2.311 101.222 2.311 101.222" transform="matrix(.92437 0 0 1.0315 -81.615 -29.958)"/><path stroke-width="38.3" d="m1191.577 55.28 3.062-6.618c12.588 23.6 100.752 195.721 149.429 512.728-5.797-34.317-35.889-212.472 39.278-434.981 3.243-9.6 2.415-8.824 4.621-21.886 1.891-11.196 1.099-10.407 2.31-21.886" transform="matrix(.92437 0 0 1.17459 -81.615 -36.922)"/><path stroke-width="38.3" d="M1385.657 564.126c-14.831-11.708-15.813-190.814 27.726-328.288 35.564-112.292 39.311-109.563 67.004-224.329 5.239 70.302 3.859 69.416 9.242 139.522 2.747 35.779 109.209 477.358 113.213 497.903l-13.863-38.3" transform="matrix(.92437 0 0 1.0315 -81.615 -29.958)"/><path stroke-width="38.3" d="M1394.899 350.739c23.122-8.213 93.174-11.837 97.04-16.414 9.241-10.943 27.447-18.128 30.036-19.15m78.131-270.838c-5.982 227.326-10.943 365.327-10.943 552.617l-8.207-46.507" transform="matrix(.92437 0 0 1.0315 -81.615 -29.958)"/><path stroke-width="38.3" d="M1583.692 55.075c46.204-15.401 136.409-5.299 170.321 54.919 24.467 43.447 7.826 136.592-19.856 153.201-70.124 42.074-143.121 38.198-109.429 57.45 40.805 23.317 188.765 184.054 188.765 194.237 0 .481-6.548 2.048-19.15-27.357m35.565 73.865c-34.572-8.643-131.48-140.973-134.051-142.258-8.654-4.327-88.299-92.45-90.279-95.751" transform="matrix(.92437 0 0 1.0315 -81.615 -29.958)"/><path stroke-width="37.17" d="M1850.343 17.168c-7.644 48.412-149.438 615.143-166.106 681.807" transform="matrix(.98175 0 0 1.07677 73.424 -60.636)"/></g></svg>

<?xml version="1.0" encoding="UTF-8" standalone="no"?>
<!DOCTYPE svg PUBLIC "-//W3C//DTD SVG 1.1//EN" "http://www.w3.org/Graphics/SVG/1.1/DTD/svg11.dtd">
<svg width="100%" height="100%" viewBox="0 0 1980 692" version="1.1" xmlns="http://www.w3.org/2000/svg" xmlns:xlink="http://www.w3.org/1999/xlink" xml:space="preserve" xmlns:serif="http://www.serif.com/" style="fill-rule:evenodd;clip-rule:evenodd;stroke-linecap:round;stroke-linejoin:round;stroke-miterlimit:1.5;">
    <g transform="matrix(1,0,0,1,90,0)">
        <g transform="matrix(0.924369,0,0,1.031492,-81.615236,-29.958381)">
            <path d="M13.233,109.995C16.412,260.558 8.272,260.245 15.544,410.925C15.929,418.9 19.888,469.028 26.671,561.39" style="fill:none;stroke:black;stroke-width:38.3px;"/>
        </g>
        <g transform="matrix(0.924369,0,0,1.031492,-81.615236,-29.958381)">
            <path d="M29.407,542.24L29.407,632.519" style="fill:none;stroke:black;stroke-width:38.3px;"/>
        </g>
        <g transform="matrix(0.924369,0,0,1.031492,-81.615236,-29.958381)">
            <path d="M17.854,118.202C43.396,110.642 90.394,80.714 144.93,129.145C150.215,133.839 232.781,170.49 237.349,197.538C271.673,400.759 201.038,459.417 198.071,487.525C192.816,537.304 106.204,610.557 96.41,618.84C84.311,629.072 65.929,630.047 38.648,646.197" style="fill:none;stroke:black;stroke-width:38.3px;"/>
        </g>
        <g transform="matrix(0.924369,0,0,1.031492,-81.615236,-29.958381)">
            <path d="M329.769,159.238C337.431,186.453 256.234,198.523 211.863,209.065C212.054,213.833 214.245,268.668 214.245,268.668C214.925,303.311 211.864,338.088 214.245,372.626C214.537,376.861 218.297,375.444 223.487,424.605C230.455,490.61 238.727,740.609 265.076,662.613C270.56,646.381 305.167,543.941 369.048,482.055" style="fill:none;stroke:black;stroke-width:38.3px;"/>
        </g>
        <g transform="matrix(0.924369,0,0,1.031492,-81.615236,-29.958381)">
            <path d="M230.418,421.868C238.412,393.469 275.484,375.001 288.18,356.21" style="fill:none;stroke:black;stroke-width:38.3px;"/>
        </g>
        <g transform="matrix(0.924369,0,0,1.031492,-81.615236,-29.958381)">
            <path d="M461.466,118.202C379.784,69.844 338.66,280.871 375.978,263.196C403.845,249.997 427.793,221.351 445.292,304.232C467.924,411.422 445.213,410.462 394.461,503.94C388.3,506.676 382.138,509.411 375.977,512.147" style="fill:none;stroke:black;stroke-width:38.3px;"/>
        </g>
        <g transform="matrix(0.924369,0,0,1.031492,-81.615236,-29.958381)">
            <path d="M512.296,101.787C561.235,-4.751 710.858,278.001 672.995,442.385C646.128,559.03 537.773,495.199 517.286,442.385C438.705,239.816 489.117,156.677 512.297,101.787L512.296,101.787Z" style="fill:none;stroke:black;stroke-width:38.3px;"/>
        </g>
        <g transform="matrix(0.924369,0,0,1.031492,-81.615236,-29.958381)">
            <path d="M679.068,78.406C679.068,78.406 676.167,527.042 679.068,561.39C679.094,561.698 679.068,582.589 679.068,561.39" style="fill:none;stroke:black;stroke-width:38.3px;"/>
        </g>
        <g transform="matrix(0.924369,0,0,1.031492,-81.615236,-29.958381)">
            <path d="M679.068,78.406C712.973,72.161 778.569,108.033 798.796,148.295C817.838,186.198 853.077,263.888 775.691,309.703C750.976,324.335 633.258,332.048 709.056,383.333C735.829,401.448 829.754,497.916 838.074,517.618" style="fill:none;stroke:black;stroke-width:38.3px;"/>
        </g>
        <g transform="matrix(0.924369,0,0,1.031492,-81.615236,-29.958381)">
            <path d="M838.074,78.406C829.305,161.472 861.178,613.371 856.558,637.991" style="fill:none;stroke:black;stroke-width:38.3px;"/>
        </g>
        <g transform="matrix(0.924369,0,0,1.031492,-81.615236,-29.958381)">
            <path d="M827.165,78.406C1022.487,-6.998 1094.658,151.721 1020.601,397.246C967.862,572.095 875.25,626.923 856.557,637.99" style="fill:none;stroke:black;stroke-width:38.3px;"/>
        </g>
        <g transform="matrix(0.924369,0,0,1.031492,-81.615236,-29.958381)">
            <path d="M1156.92,101.787C1124.643,108.157 1086.208,139.702 1080.674,140.087C1068.373,140.944 1055.878,137.811 1043.706,140.087C1035.091,141.698 1041.317,455.388 1052.913,577.058C1110.102,520.397 1108.118,496.894 1216.992,471.111" style="fill:none;stroke:black;stroke-width:38.3px;"/>
        </g>
        <g transform="matrix(0.924369,0,0,1.031492,-81.615236,-29.958381)">
            <path d="M1133.815,254.988C1120.745,251.119 1095.427,298.969 1078.364,312.438C1063.746,323.977 1061.167,318.741 1050.638,334.324" style="fill:none;stroke:black;stroke-width:38.3px;"/>
        </g>
        <g transform="matrix(0.924369,0,0,1.031492,-81.615236,-29.958381)">
            <path d="M1191.577,48.662C1185.506,217.583 1193.031,255.87 1196.198,424.604C1196.388,434.707 1198.509,525.826 1198.509,525.826" style="fill:none;stroke:black;stroke-width:38.3px;"/>
        </g>
        <g transform="matrix(0.924369,0,0,1.174588,-81.615236,-36.921689)">
            <path d="M1191.577,55.28L1194.639,48.662C1207.227,72.262 1295.391,244.383 1344.068,561.39C1338.271,527.073 1308.179,348.918 1383.346,126.409C1386.589,116.809 1385.761,117.585 1387.967,104.523C1389.858,93.327 1389.066,94.116 1390.277,82.637" style="fill:none;stroke:black;stroke-width:38.3px;"/>
        </g>
        <g transform="matrix(0.924369,0,0,1.031492,-81.615236,-29.958381)">
            <path d="M1385.657,564.126C1370.826,552.418 1369.844,373.312 1413.383,235.838C1448.947,123.546 1452.694,126.275 1480.387,11.509C1485.626,81.811 1484.246,80.925 1489.629,151.031C1492.376,186.81 1598.838,628.389 1602.842,648.934C1598.221,636.167 1593.6,623.4 1588.979,610.634" style="fill:none;stroke:black;stroke-width:38.3px;"/>
        </g>
        <g transform="matrix(0.924369,0,0,1.031492,-81.615236,-29.958381)">
            <path d="M1394.899,350.739C1418.021,342.526 1488.073,338.902 1491.939,334.325C1501.18,323.382 1519.386,316.197 1521.975,315.175" style="fill:none;stroke:black;stroke-width:38.3px;"/>
        </g>
        <g transform="matrix(0.924369,0,0,1.031492,-81.615236,-29.958381)">
            <path d="M1600.106,44.337C1594.124,271.663 1589.163,409.664 1589.163,596.954C1586.427,581.452 1583.692,565.949 1580.956,550.447" style="fill:none;stroke:black;stroke-width:38.3px;"/>
        </g>
        <g transform="matrix(0.924369,0,0,1.031492,-81.615236,-29.958381)">
            <path d="M1583.692,55.075C1629.896,39.674 1720.101,49.776 1754.013,109.994C1778.48,153.441 1761.839,246.586 1734.157,263.195C1664.033,305.269 1591.036,301.393 1624.728,320.645C1665.533,343.962 1813.493,504.699 1813.493,514.882C1813.493,515.363 1806.945,516.93 1794.343,487.525" style="fill:none;stroke:black;stroke-width:38.3px;"/>
        </g>
        <g transform="matrix(0.924369,0,0,1.031492,-81.615236,-29.958381)">
            <path d="M1829.908,561.39C1795.336,552.747 1698.428,420.417 1695.857,419.132C1687.203,414.805 1607.558,326.682 1605.578,323.381" style="fill:none;stroke:black;stroke-width:38.3px;"/>
        </g>
        <g transform="matrix(0.981751,0,0,1.076771,73.423634,-60.635786)">
            <path d="M1850.343,17.168C1842.699,65.58 1700.905,632.311 1684.237,698.975" style="fill:none;stroke:black;stroke-width:37.17px;"/>
        </g>
    </g>
</svg>
